X: 30966
T: Oyster Girl, The
R: jig
M: 6/8
K: Gmajor
|:Bc|ded B2 G|A2 F D2 F|GFG BGB|d2 c A2 e|
ded B2 g|f2 e c2 e|ded cBA|1 G3G:|2 G3G2||
|:d|Bcd Bcd|e2 c e2 c|ABc ABc|d2 B d2 d|
ded B2 g|f2 e c2 e|ded cBA|1 G3G2:|2 G3G||

